X:1
T:Let the Master Use You
T:Samuel William Beazley
T:Let the Master Use You
T:Public Domain
T:Public Domain
T:Public Domain
C:Samuel William Beazley
Z:Public Domain
%%score ( 1 2 ) ( 3 4 )
L:1/8
M:4/4
K:Ab
V:1 treble 
V:2 treble 
V:3 bass 
V:4 bass 
V:1
 [Ec]>[Fd] [Ec]>[DB] [CA]2 [CE]2 | [DF]>[FA] [EG]>[DF] [CE]4 | [DE]>[DF] [DG]>[DF] [DF]2 [DE]2 | %3
w: 1.~Like a ves- sel fa- shioned|by the Mas- ter’s hand,|Tho’ your place be low- ly,|
w: 2.~Come, your all sur- ren- der|to the God of grace,|In your need- y ho- ur|
w: 3.~Yield to Him the tal- ents|of your life so fair,|Fol- low as He leads you|
 [CE]>[CF] [CG]>[CF] [CF]2 [CE]2 | [Ec]>[Fd] [Ec]>[DB] [CA]2 [CE]2 | [DF]>[FA] [EG]>[DF] [CE]4 | %6
w: be ye cleaned and ho- ly;|That a- mong His chos- en|you in truth may stand,|
w: He can give you pow- er;|Made a wor- thy ves- sel,|fill your wait- ing place,|
w: to the one who needs you,|If you would be wor- thy|in His love to share,|
 [EB]>[E=A] [EB]>[Ec] [EB]>[Ee] [Ec]>[E_A] | [EG]2 [=DF]2 E4 ||"^Refrain" (E>A) (G>F) c>e d>c | %9
w: Let the Mas- ter use you in His|work to- day.|a * ves- * sel fa- shioned by|
w: Let the Mas- ter use you in His|work to- day.||
w: Let the Mas- ter use you in His|work to- day.||
 (E>F) (G>F) [EB]4 | (E>B) (G>F) d>f e>d | (E>A) (G>F) [Ec]4 | [_Ge]>[Ge] [Gf]>[Ge] [Gc]2 [GA]2 | %13
w: the * Mas- * ter|use * for * you; Pure and sweet|keep * your * heart|Je- sus wants you to be|
w: ||||
w: ||||
 [FA]>[FA] [Ad]>[Ae] [Af]4 | [Ae]>[Ac] A>[AB] [Ac]2 (GE) | [EA]6 z2 |] %16
w: true. * * * *|||
w: |||
w: |||
V:2
 x8 | x8 | x8 | x8 | x8 | x8 | x8 | x4 E4 || B2 c2 E4 | B2 B2 x4 | d2 d2 E4 | c2 c2 x4 | x8 | x8 | %14
w: |||||||Like|His hand, Let|find a|and ho- ly|for Him;|||
 x2 A3/2 x B2 x3/2 | x8 |] %16
w: ||
V:3
 [A,,A,]>[A,,A,] [A,,A,]>[A,,A,] [A,,A,]2 [A,,A,]2 | [D,A,]>[D,A,] [D,A,]>[D,A,] [A,,A,]4 | %2
w: ~ ~ ~ ~ ~ ~|~ ~ ~ ~ ~|
 [E,G,]>[E,A,] [E,B,]>[E,A,] [E,A,]2 [E,G,]2 | [A,,A,]>[A,,A,] [A,,A,]>[A,,A,] [A,,A,]2 [A,,A,]2 | %4
w: ~ ~ ~ ~ ~ ~|~ ~ ~ ~ ~ ~|
 [A,,A,]>[A,,A,] [A,,A,]>[A,,A,] [A,,A,]2 [A,,A,]2 | [D,A,]>[D,A,] [D,A,]>[D,A,] [A,,A,]4 | %6
w: ~ ~ ~ ~ ~ ~|~ ~ ~ ~ ~|
 [G,,B,]>[^F,,C] [G,,B,]>[A,,A,] [G,,B,]>[G,,B,] [A,,A,]>[A,,C] | [B,,B,]2 [B,,A,]2 [E,G,]4 || %8
w: ~ ~ ~ ~ ~ ~ ~ ~|~ ~ ~|
 (A,,>A,,) (A,,>A,,) A,>C B,>A, | [E,G,]>[E,A,] [E,B,]>[E,A,] [E,G,]4 | %10
w: Like * a * ves- sel that is|His hand, Let Him find|
 (E,>E,) ([E,B,]>[E,A,]) G,>D C>B, | [A,,A,]>[A,,A,] [A,,A,]>[A,,A,] (A,,>B,,) C,>E, | %12
w: a * use, * yes, ~ use for|pure and ho- ly * * * *|
 [A,C]6 [A,C]2 | [D,D]>[D,D] [F,D]>[A,C] [D,D]2 [=D,=B,]2 | %14
w: ||
 [E,C]>[E,E] [F,=D]>[F,D] [E,E]2 [E,_D]2 | [A,,C]6 z2 |] %16
w: ||
V:4
 x8 | x8 | x8 | x8 | x8 | x8 | x8 | x8 || A,2 A,2 A,,4 | x8 | G,2 x/ E,4 x3/2 | x4 A,4 | x8 | x8 | %14
w: ||||||||fa- shioned by||you, And||||
 x8 | x8 |] %16
w: ||

